X: 26003
T: Mayor Harrison's Fedora
R: reel
M: 4/4
K: Edorian
F|:GBEG BGAF|GFGA BdAG|FADF ADFA|dcdB AGFA|
GBEG BGAF|(3GGG A ~B3 c|dedB AGFA|GEED E3 A:|
|:(3Bcd ef ~e3 f|e^def edBA|^GABc dBBA|(3Bcd gf edBA|
(3Bcd ef ~e3 f|geed edBc|dedB AGFA|GEED E3 A:|
|:~G4 GABc|dGBA FADA|(3Bcd ef e3 f|geed edBc|
dedB AGFA|~GAEF GABc|dA (3Bcd ~A3 F|GEED E4:|

